src/assets/icons/volume.svg

<svg viewBox="0 0 20 16" xmlns="http://www.w3.org/2000/svg">
<path d="M10.43 0.100001C10.2676 0.0297435 10.0895 0.0038334 9.91379 0.0249153C9.73811 0.0459973 9.57116 0.113316 9.43 0.220001L4.65 4H1C0.734784 4 0.48043 4.10536 0.292893 4.29289C0.105357 4.48043 0 4.73479 0 5V11C0 11.2652 0.105357 11.5196 0.292893 11.7071C0.48043 11.8946 0.734784 12 1 12H4.65L9.38 15.78C9.55594 15.9212 9.77444 15.9987 10 16C10.1494 16.0025 10.297 15.9681 10.43 15.9C10.6002 15.819 10.744 15.6915 10.8448 15.5322C10.9457 15.373 10.9995 15.1885 11 15V1C10.9995 0.811515 10.9457 0.627018 10.8448 0.46778C10.744 0.308543 10.6002 0.18105 10.43 0.100001ZM9 12.92L5.62 10.22C5.44406 10.0788 5.22556 10.0013 5 10H2V6H5C5.22556 5.99869 5.44406 5.92116 5.62 5.78L9 3.08V12.92ZM13.14 0.0900017C13.0087 0.0716166 12.875 0.0792774 12.7467 0.112547C12.6183 0.145816 12.4977 0.204042 12.3919 0.2839C12.286 0.363758 12.1969 0.463685 12.1297 0.577975C12.0625 0.692265 12.0184 0.818679 12 0.950001C11.9816 1.08132 11.9893 1.21498 12.0225 1.34334C12.0558 1.4717 12.114 1.59225 12.1939 1.69811C12.3552 1.91191 12.5948 2.05287 12.86 2.09C14.2762 2.30825 15.5676 3.02613 16.5004 4.11379C17.4333 5.20145 17.9462 6.58707 17.9462 8.02C17.9462 9.45293 17.4333 10.8386 16.5004 11.9262C15.5676 13.0139 14.2762 13.7318 12.86 13.95C12.5948 13.9686 12.3478 14.0917 12.1734 14.2924C11.999 14.4931 11.9114 14.7548 11.93 15.02C11.9486 15.2852 12.0717 15.5322 12.2724 15.7066C12.4731 15.881 12.7348 15.9686 13 15.95H13.14C15.0328 15.6637 16.7602 14.708 18.0086 13.2567C19.2569 11.8053 19.9434 9.95438 19.9434 8.04C19.9434 6.12563 19.2569 4.27472 18.0086 2.82334C16.7602 1.37197 15.0328 0.416349 13.14 0.130002V0.0900017ZM12.68 9.87C12.4148 9.91244 12.1773 10.0585 12.0198 10.276C11.8622 10.4936 11.7976 10.7648 11.84 11.03C11.8824 11.2952 12.0285 11.5327 12.246 11.6902C12.4636 11.8478 12.7348 11.9124 13 11.87C13.1085 11.8688 13.2163 11.8519 13.32 11.82C14.099 11.5438 14.7733 11.033 15.2502 10.3579C15.7271 9.6828 15.9832 8.87655 15.9832 8.05C15.9832 7.22346 15.7271 6.41721 15.2502 5.74211C14.7733 5.06702 14.099 4.55624 13.32 4.28C13.068 4.19513 12.7927 4.21383 12.5545 4.33198C12.3164 4.45012 12.1349 4.65805 12.05 4.91C11.9651 5.16196 11.9838 5.43731 12.102 5.67548C12.2201 5.91365 12.428 6.09513 12.68 6.18C13.0595 6.32393 13.3862 6.5799 13.6167 6.91391C13.8472 7.24792 13.9707 7.64416 13.9707 8.05C13.9707 8.45585 13.8472 8.85209 13.6167 9.18609C13.3862 9.5201 13.0595 9.77607 12.68 9.92V9.87Z"/>
</svg>

<svg viewBox="0 0 20 16" xmlns="http://www.w3.org/2000/svg">
  <path d="M10.43.1a1 1 0 0 0-1 .12L4.65 4H1a1 1 0 0 0-1 1v6a1 1 0 0 0 1 1h3.65l4.73 3.78A1 1 0 0 0 10 16a.91.91 0 0 0 .43-.1.999.999 0 0 0 .57-.9V1a1 1 0 0 0-.57-.9zM9 12.92l-3.38-2.7A1 1 0 0 0 5 10H2V6h3a1 1 0 0 0 .62-.22L9 3.08v9.84zM13.14.09a1.01 1.01 0 1 0-.28 2 6 6 0 0 1 0 11.86 1.002 1.002 0 0 0 .14 2h.14a8 8 0 0 0 0-15.82V.09zm-.46 9.78a1.013 1.013 0 0 0 .32 2c.108-.001.216-.018.32-.05a4 4 0 0 0 0-7.54 1.002 1.002 0 0 0-.64 1.9 2 2 0 0 1 0 3.74v-.05z"/>
</svg>
